X:0
T:Crocus Pocus (by Stephan Deibel)
K:G
L:1/4
M:4/4
Q:1/2=92
B/c/|:d!+!DB!+!D|A/B/A/G/ A B/c/|d!+!DBc|A2AB/c/|
d!+!DB!+!D|A/B/A/G/ A B/c/|1:dDBA|G2GB/c/:|2:ded^c|d2de/f/||
|:g2f2|eafd|gg/g/fa|ee/f/ee/f/|
g2f2|ea/a/fd|d/d/^c/^c/ =c/=c/^c/^c/|1:d2de/f/:|2:d2d2||
